X:1
T:James Gibb editions
T:Exultate justi - Vulpius
T:#
%%score [ 1 2 3 4 ]
L:1/8
Q:1/4=100
M:4/4
K:C
V:1 treble nm="Soprano"
V:2 treble nm="Alto"
V:3 treble-8 nm="Tenor"
V:4 bass nm="Bass"
V:1
"^Melchior Vulpius\n(1570-1615)""^Exultate justi""^Psalm 32:1-5 (Vulgate)" z8 | z8 | z8 | %3
w: |||
!mf! A3 A ^G2 G2 | c4 B2 B2 | c2 A2 B4 |[M:4/4] A2 !>!A4 ^G2 | A2 F2 E2 E2 | E4 z2 G2 | %9
w: E- xul- ta- te|ju- sti in|Do- mi- no,|in Do- mi-|no, in Do- mi-|no, in|
 (F2 ED E2) E2 | ^F2!f! !>!A4 A2 | B4 c4 | A4 A4 | A6 A2 | A4!pp! A2 A2 | A3 B c2 !>!A2- | %16
w: Do\- * * * mi-|no; re- ctos|de- cet|col- lau-|da- ti-|o! Con- fi-|te- mi- ni Do\-|
 A2 G2 E2 E2 | (FEFG A3 G/F/ | E2 F2 E2) E2 | ^F4 A2 A2 | A3 A B2 !>!c2- | c2 A2 ^G4 | %22
w: * mi- no in|ci\- * * * * * *|* * * tha-|ra, con- fi-|te- mi- ni Do\-|* mi- no|
 z2 A2 (=G3 ^F | ^GE A4) G2 | A4"^cresc." A2 A2 | A3 B c2 !>!c2- | c2 B2 A2 A2 | (FEFG A4- | %28
w: in ci\- *|* * * tha-|ra, con- fi-|te- mi- ni Do\-|* mi- no in|ci\- * * * *|
!ff! A4) A4 | A8 | A3 A A3 B | c4 z4 | c2 c2 c3 d | e4 z4 | E2 E2 E3 F | G4 z4 | G2 G2 G3 A | %37
w: * tha-|ra;|in psal- te- ri-|o,|in psal- te- ri-|o,|in psal- te- ri-|o,|in psal- te- ri-|
 B4 z4 | B2 B2 B3 c | d4 B4 | c4 !>!B4- | B4 (!>!A4- | A4 ^G4) | A8 | z8 | (!>!A6!p! G2 | %46
w: o,|in psal- te- ri-|o de-|cem chor\-|* da\-||rum||psal\- *|
 F2 E2 D2 E2 | F4) F4 | E4 E4 | F4 (D2 E2 | F2 G2 A4- | A4 F4 | E8 | z4!f! (A4- | A2 B2 c2 d2 | %55
w: |* li-|te il-|li, psal\- *||* li-|te,|psal\-||
 e6 d2 | c2 B2 A4- | A4) ^G4 | A4!ff! e4- | e2 d2 c2 B2 | A4 A4 | A4 (A4- | A2 E2 A4- | A4 ^G4) | %64
w: ||* li-|te, psal\-||* li-|te, il\-|||
!>(! A8- | A8!>)! || z8 | z4!pp! d4 | ^c2 A2 B2 c2 | d4 z2 A2 | ^G2 E2 ^F2 G2 | A4 z4 | %72
w: li.|||Can-|ta- te Do- mi-|no, can-|ta- te Do- mi-|no,|
 z2 d2 =c2 A2 ||[M:3/4] B2 ^c2 d2 | !>!d3"^cresc." d c2 | B4 c2 |!f! c3 c B2 |!>(! A4 G2!>)! | %78
w: can- ta- te|Do- mi- no|can- ti- cum|no- vum,|can- ti- cum|no- vum,|
[M:3/4]!pp! A3 A G2 | F4 E2 | !>!A3 A A2 ||[M:4/4] ^G8 | A4!mf! e2 e2 | edcB A2) A2 | %84
w: can- ti- cum|no- vum,|can- ti- cum|no-|vum; be- ne|psal\- * * * * li-|
[M:4/4] A4 d2 d2 | (dcBA G2) G2 | G8 | d4 A4 |!ff! e2 e2 (edcB | c2) c2 c4 | d2 d2 (dcBA | %91
w: te, be- ne|psal\- * * * * li-|te|e- i,|be- ne psal\- * * *|* li- te,|be- ne psal\- * * *|
 B2) B2 B4 | (c6 B2 | A2 F2 A4- | A2 ^G^F G4) | A4!pp! =G2 G2 | G3 (G/A/) G2 F2 | (E8 | F3 G) A4 | %99
w: * li- te|e\- *|||i in vo-|ci- fe\- * ra- ti-|o\-|* * ne.|
 z4 z2!ff! d2- | d2 c2 _B2 B2 | A4 z2 d2- | d2 c2 (_BG B2- | BA A4) G2 | %104
w: Qui\-|* a re- ctum|est ver\-|* bum Do\- * *|* * * mi-|
 A2!mf! A2 !courtesy!=B3 B | B2!f! c2 c3 c | c4 d2!ff! d2 | c4 B4 | z2!pp! A2 A3 A | A2 B3 B B2 | %110
w: ni; et o- mni-|a o- pe- ra|e- jus in|fi- de,|et o- mni-|a o- pe- ra|
 (!>!c3 B) A4 | (G2 F2) E4 | ^F8 | E2 E2 E2 G2 | G6 F2 | E2 !>!G4 G2 | A4 A4 | %117
w: e\- * jus|in * fi-|de.|Di- li- git ju-|sti- ti-|am et ju-|di- ci-|
 ^G2 !>!c4"^cresc." B2 | c4 d4 | B4 ^c4 | ^c4 c4 | ^c6 d2 | ^c2!f! c4 d2 | ^c8 | z4!ff! B4 | %125
w: um, et ju-|di- ci-|um; mi-|se- ri-|cor- di-|a Do- mi-|ni,|mi-|
 B4 B4 | B6 =c2 | B2 B4 A2 | B2"^dim." B2 c2 !>!B2- | B2 (A4 ^G2) | A2 E2 F2 !>!E2- | %131
w: se- ri-|cor- di-|a Do- mi-|ni ple- na est|* ter\- *|ra, ple- na est|
 E2 (!>!D4 ^C2) | D2 A2 A2 F2 | E4 A,2 A2 | A2 F2 E4 | F2!pp! A2 A2 F2 | %136
w: * ter\- *|ra, ple- na est|ter- ra, ple-|na est ter-|ra, ple- na- est|
[Q:1/4=98] E4[Q:1/4=96] A,2[Q:1/4=95] A2 |[Q:1/4=94] A2[Q:1/4=92] F2[Q:1/4=90] E4 | %138
w: ter- ra, ple-|na est ter-|
[Q:1/4=87] ^F8- |[Q:1/4=85] F8 |] %140
w: ra.||
V:2
!mf! D3 D ^C2 C2 | D4 A,2 E2 | F2 D2 E4 | z2!mf! D2 B,2 B,2 | E4 E3 E | E2 E2 E4 |[M:4/4] E8 | %7
w: E- xul- ta- te|ju- sti in|Do- mi- no,|in Do- mi-|no, e- xul-|ta- te ju-|sti|
 z2 D2 B,2 B,2 | ^C4 D2 (D2- | D2 ^CB, C2) C2 | D2!f! !>!^F4 F2 | G4 G4 | =F6 F2 | F4 E4 | %14
w: in Do- mi-|no, in Do\-|* * * * mi-|no; re- ctos|de- cet|col- lau-|da- ti-|
 ^F4!pp! =F2 F2 | F3 G E2 !>!F2- | F2 D2 ^C4 | z2 D2 (=C3 B, | ^CA, D4) C2 | D4 =F2 F2 | %20
w: o! Con- fi-|te- mi- ni Do\-|* mi- no|in ci\- *|* * * tha-|ra, con- fi-|
 E3 F G2 !>!G2- | G2 F2 E2 E2 | (CB,CD E4- | E4) E4 | E4"^cresc." E2 E2 | ^F3 G G2 !>!A2- | %26
w: te- mi- ni Do\-|* mi- no in|ci\- * * * *|* tha-|ra, con- fi-|te- mi- ni Do\-|
 A2 (G=F) E2 E2 | A2 A2 A3 (G/F/) |!ff! (E2 F2 E2) E2 | F4 F2 F2 | (F3 E/D/ C2) D2 | E4 A2 A2 | %32
w: * mi\- * no in|ci- tha- ra, in *|ci\- * * tha-|ra; in psal-|te\- * * * ri-|o, in psal-|
 (A3 G/F/ E2) F2 | G4 C2 C2 | (C3 B,/A,/ G,2) A,2 | B,4 E2 E2 | (E3 D/C/ B,2) C2 | D4 G2 G2 | %38
w: te\- * * * ri-|o, in psal-|te\- * * * ri-|o, in psal-|te\- * * * ri-|o, in psal-|
 (G3 F/E/ D2) D2 | G4 G4 | G4 F4 | E8 | E8 | (!>!E6!p! D2 | C2 B,2 A,2 B,2 | C4) C4 | D4 (!>!F4- | %47
w: te\- * * * ri-|o de-|cem chor-|da-|rum|psal\- *||* li-|te, il\-|
 F2 E2 !>!D4- | D2 ^CB, C4) | D4 (A4- | A2 G2 F2 E2 | D4 D4 | C4!f! (C4- | C2 A,2 C2 D2 | E6) D2 | %55
w: ||li, psal\-||* li-|te, psal\-||* li-|
 C2 B,2 A,2 B,2 | C2 D2 E4- | E2) E2 E4 |!ff! (E6 D2 | C2 B,2 C2 D2 | E4 F4 | F8 | E8- | E8 | %64
w: te, psal\- * *||* li- te,|psal\- *||* li-|te|il\-||
!>(! E8- | E8!>)! ||!pp! D4 ^C2 A,2 | B,2 ^C2 D4 | z2 ^C2 B,2 ^G,2 | A,2 B,2 ^C4 | z8 | %71
w: li.||Can- ta- te|Do- mi- no,|can- ta- te|Do- mi- no,||
 z2 A2 =G2 E2 | =F2 G2 A4 ||[M:3/4] z4 z2 | !>!A3"^cresc." A A2 | ^G4 A2 |!f! A3 A =G2 | %77
w: can- ta- te|Do- mi- no,||can- ti- cum|no- vum,|can- ti- cum|
!>(! F4 E2!>)! |[M:3/4]!pp! F3 F E2 | D4 ^C2 | !>!E3 E F2 ||[M:4/4] E8 | E8 | z2!mf! A2 A2 AG | %84
w: no- vum,|can- ti- cum|no- vum,|can- ti- cum|no-|vum;|be- ne psal\- *|
[M:4/4] ^FE !>!F4) F2 | G2 G2 G2 (G=F | ED) !>!E4 E2 | F8 | E4 A,4 | z4!ff! A2 A2 | (AG^FE F2) F2 | %91
w: * * * li-|te, be- ne psal\- *|* * * li-|te|e- i,|be- ne|psal\- * * * * li-|
 G4 G2 G2 | (G=FED E2) E2 | F8 | E8 | E4!pp! E2 E2 | E3 E E2 D2 | ^C8 | D4!ff! F4- | F2 E2 D2 D2 | %100
w: te, be- ne|psal\- * * * * li-|te|e-|i in vo-|ci- fe- ra- ti-|o-|ne. Qui\-|* a re- ctum|
 E4 z2 F2- | F2 E2 D2 D2 | E4 z2 !>!F2- | F2 E2 D2 D2 | E2!mf! ^F2 G3 G | G2!f! G2 G3 G | %106
w: est ver\-|* bum Do- mi-|ni, ver\-|* bum Do- mi-|ni; et o- mni-|a o- pe- ra|
 A4 A2!ff! A2 | A4 ^G4 | z2!pp! E2 F3 F | F2 G3 G G2 | (G4 F2 ED) | E2 !>!D4 ^C2 | D8 | %113
w: e- jus in|fi- de,|et o- mni-|a o- pe- ra|e\- * * *|jus in fi-|de.|
 ^C2 C2 C2 D2 | E6 D2 | B,2 !>!E4 D2 | F4 F4 | E2 !>!G4"^cresc." G2 | A4 A4 | ^G4 A4 | A4 A4 | %121
w: Di- li- git ju-|sti- ti-|am et ju-|di- ci-|um, et ju-|di- ci-|um; mi-|se- ri-|
 A6 A2 | A2!f! A4 G2 | A8 | z4!ff! ^G4 | ^G4 G4 | ^G6 A2 | ^G2 G4 A2 | ^G2"^dim." =G2 G2 F2 | E8 | %130
w: cor- di-|a Do- mi-|ni,|mi-|se- ri-|cor- di-|a Do- mi-|ni ple- na est|ter-|
 C2 C2 C2 B,2 | A,8 | A,8 | z2 A2 A2 F2 | (E2 !>!D4 ^C2 | D2!pp! F2 E2) A,2 | z2 A2 A2 F2 | %137
w: ra, ple- na est|ter-|ra,|ple- na est|ter\- * *|* * * ra,|ple- na est|
 (E2 !>!D4 ^C2) | D8- | D8 |] %140
w: ter\- * *|ra.||
V:3
 z8 | z8 | z8 | z8 |!mf! A3 A ^G2 G2 | A4 E2 B2 |[M:4/4][K:treble-8] c2 A2 B4 | A2 !>!A4 ^G2 | %8
w: ||||E- xul- ta- te|ju- sti in|Do- mi- no,|in Do- mi-|
 A2 A2 F2 _B2 | A4!f! A4- | A2 A2 !>!d4- | d4 e4 | c6 d2 | (cA d4) ^c2 | d4!pp! A2 A2 | %15
w: no, in Do- mi-|no; re\-|* ctos de\-|* cet|col- lau-|da\- * * ti-|o! Con- fi-|
 d3 G c2 !>!F2- | F2 G2 A2 A2 | (D^CDE FEFG | A6) A2 | D4 d2 d2 | ^c3 d d2 !>!e2- | e2 (dc) B2 B2 | %22
w: te- mi- ni Do\-|* mi- no *|ci\- * * * * * * *|* tha-|ra, con- fi-|te- mi- ni Do\-|* mi\- * no in|
 e2 e2 e3 (d/c/) | (B2 c2 B2) B2 | ^c4"^cresc." c2 c2 | d3 d e2 f2- | f2 d2 ^c4 | z2 d2 (=c3 B | %28
w: ci- tha- ra, in *|ci\- * * tha-|ra, con- fi-|te- mi- ni Do\-|* mi- no|in ci\- *|
!ff! ^cA d4) c2 | d8 | z4 A2 A2 | A3 B c4 | z4 c2 c2 | c3 d e4 | z4 E2 E2 | E3 F G4 | z4 G2 G2 | %37
w: * * * tha-|ra;|in psal-|te- ri- o,|in psal-|te- ri- o,|in psal-|te- ri- o,|in psal-|
 G3 A B4 | z4 B2 B2 | B3 c d4 | e4 !>!d4- | d4 !>!c4 | B8 | c8 | (e6!p! d2 | c2 B2 A4- | %46
w: te- ri- o,|in psal-|te- ri- o|de- cem|* chor-|da-|rum|psal\- *||
 A2) A2 A4 | A8- | A8 | A8 |!f! (D6 E2 | F2 G2 A2 B2 | c2 d2 e4- | e4) e4 | c4 (A4- | A2 B2 c2 d2 | %56
w: * li- te|il\-||li,|psal\- *|||* li-|te, psal\-||
 e4) c4 | B4 B4 | c8 |!ff! (e6 d2 | c2 B2 c2) c2 | d4 (d4- | d2 c2 c2 BA | B8) | ^c8- | c8 || %66
w: * li-|te il-|li,|psal\- *|* * * li-|te il\-|||li.||
 z4!pp! A4 | ^G2 E2 ^F2 G2 | A4 z4 | z2 d2 ^c2 A2 | B2 ^c2 d4 | z8 | d4 e2 =f2 ||[M:3/4] e2 e2 d2 | %74
w: Can-|ta- te Do- mi-|no,|can- ta- te|Do- mi- no,||can- ta- te|Do- mi- no|
 !>!f3"^cresc." f e2 | e4 e2 |!f! e3 e e2 |!>(! c4 c2!>)! |[M:3/4][K:treble-8]!pp! c3 c c2 | %79
w: can- ti- cum|no- vum,|can- ti- cum|no- vum,|can- ti- cum|
 A4 A2 | !>!^c3 c d2 ||[M:4/4] B4 B4 |!mf! e2 e2 (edcB | c2) c2 c4 | %84
w: no- vum,|can- ti- cum|no- vum;|be- ne psal\- * * *|* li- te,|
[M:4/4][K:treble-8] d2 d2 (dcBA | B2) B2 B4 | c2 c2 c3 B | A4 d4 | c4!ff! e2 e2 | (edcB A2) A2 | %90
w: be- ne psal\- * * *|* li- te,|be- ne psal- li-|te e-|i, be- ne|psal\- * * * * li-|
 A4 d2 d2 | (dcBA G2) G2 | G8 | (d6 A2 | c2 BA B4) | A4!pp! c2 c2 | c3 c c2 A2 | A8 | A4!ff! d4- | %99
w: te, be- ne|psal\- * * * * li-|te|e\- *||i in vo-|ci- fe- ra- ti-|o-|ne. Qui\-|
 d2 c2 _B2 B2 | A4 z2 d2- | d2 c2 _B2 B2 | A4 z2 !>!d2- | d2 c2 _B2 B2 | A2!mf! d3 d d2 | %105
w: * a re- ctum|est ver\-|* bum Do- mi-|ni, ver\-|* bum Do- mi-|ni; et o- mni-|
 d2!f! e2 e3 e | f4 f2!ff! f2 | e4 e4 | z2!pp! ^c2 d3 d | d2 d3 d d2 | (e3 d cB c2) | c2 A2 A4 | %112
w: a o- pe- ra|e- jus in|fi- de,|et o- mni-|a o- pe- ra|e\- * * * *|jus in fi-|
 A8 | A2 A2 A2 B2 | c6 A2 | ^G2 !>!c4 B2 | c4 d4 | B2 !>!e4"^cresc." d2 | f4 f4 | e4 e4 | e4 e4 | %121
w: de.|Di- li- git ju-|sti- ti-|am et ju-|di- ci-|um, et ju-|di- ci-|um; mi-|se- ri-|
 e6 f2 | e2!f! e4 d2 | e8 | z4!ff! e4 | e4 e4 | e6 e2 | e2 e4 c2 | e2"^dim." e4 d2- | d2 c2 B4 | %130
w: cor- di-|a Do- mi-|ni,|mi-|se- ri-|cor- di-|a Do- mi-|ni ple- na|* est ter-|
 A2 !>!A4 !>!G2- | G2 F2 E4 | D4 z2 (d2 | ^c3 d) e2 d2 | (=cBAG A4) | A4 z2!pp! d2 | %136
w: ra, ple- na|* est ter-|ra, ple\-|* * na est|ter\- * * * *|ra, ple-|
 (^c3 d e2) d2 | (cBAG A4) | A8- | A8 |] %140
w: na * * est|ter\- * * * *|ra.||
V:4
 z8 |!mf! D,3 D, ^C,2 C,2 | D,4 A,,2 E,2 | F,2 D,2 E,4 | z8 | A,,3 A,, ^G,,2 G,,2 | %6
w: |E- xul- ta- te|ju- sti in|Do- mi- no,||e- xul- ta- te|
[M:4/4] A,,4 E,2 E,2 | F,2 D,2 E,4 | z2 A,,2 _B,,2 G,,2 | A,,8 |!f! D,6 D,2 | G,4 C,4 | F,6 E,2 | %13
w: ju- sti in|Do- mi- no,|in Do- mi-|no;|re- ctos|de- cet|col- lau-|
 (F,3 G, A,2) A,,2 |!>(! D,8!>)! | z8 | z8 | z8 | z8 | z4!pp! D,2 D,2 | A,3 D, G,2 !>!C,2- | %21
w: da\- * * ti-|o!|||||Con- fi-|te- mi- ni Do\-|
 C,2 D,2 E,2 E,2 | (A,,^G,,A,,B,, C,B,,C,D, | E,6) E,2 | A,,4"^cresc." A,2 A,2 | D,3 G, C,2 F,2- | %26
w: * mi- no in|ci\- * * * * * * *|* tha-|ra, con- fi-|te- mi- ni Do\-|
 F,2 G,2 A,2 A,2 | (D,^C,D,E, F,E,F,G, |!ff! A,6) A,2 | D,4 D,2 D,2 | D,3 E, F,4 | z4 F,2 F,2 | %32
w: * mi- no in|ci\- * * * * * * *|* tha-|ra; in psal-|te- ri- o,|ra, in|
 F,3 G, A,4 | z4 A,,2 A,,2 | A,,3 B,, C,4 | z4 C,2 C,2 | C,3 D, E,4 | z4 E,2 E,2 | E,3 F, G,4 | %39
w: te- ri- o,|in psal-|te- ri- o,|in psal-|te- ri- o,|in psal-|te- ri- o|
 G,8 | C,4 D,4 | E,8- | E,8 | A,,8 | z4 (!>!A,4- |!p! A,2 G,2 F,2 E,2 | D,4) D,4 | D,8 | A,,8 | %49
w: de-|cem chor-|da\-||rum|psal\-||* li-|te|il-|
 D,8 | z4!f! (D,4- | D,2 E,2 F,2 G,2 | A,4) A,4 | A,,8- | A,,8 | z4 (A,,4- | A,,2 B,,2 C,2 D,2 | %57
w: li,|psal\-||* li-|te,||psal\-||
 E,4) E,4 | A,,8 | z4!ff! (A,4- | A,2 G,2 F,2 E,2 | D,4) D,4 | A,,8 | E,8 | A,,8- | A,,8 || z8 | %67
w: * li-|te,|psal\-||* li-|te|il-|li.|||
 z8 |!pp! A,4 ^G,2 E,2 | ^F,2 ^G,2 A,4 | z4 D,4 | ^C,2 A,,2 B,,2 C,2 | D,2 _B,2 A,2 =F,2 || %73
w: |Can- ta- te|Do- mi- no,|can-|ta- te Do- mi-|no, can- ta- te|
[M:3/4] G,2 A,2 D,2 | !>!D,3"^cresc." D, A,,2 | E,4 A,,2 |!f! A,3 A, E,2 |!>(! F,4 C,2!>)! | %78
w: Do- mi- no|can- ti- cum|no- vum,|can- ti- cum|no- vum,|
[M:3/4]!pp! F,3 F, C,2 | D,4 A,,2 | !>!A,3 A, D,2 ||[M:4/4] E,8 | A,,8 |!mf! A,2 A,2 (A,G,F,E, | %84
w: can- ti- cum|no- vum,|can- ti- cum|no-|vum;|be- ne psal\- * * *|
[M:4/4] D,2 D,2 D,4 | G,2 G,2 (G,F,E,D, | C,2) C,2 C,4 | D,8 | A,,8 |!ff! A,2 A,2 A,G,F,E, | %90
w: * li- te,|be- ne psal\- * * *|* li- te|e-|i,|be- ne psal\- * * *|
 D,2 D,2 D,4 | G,2 G,2 (G,F,E,D, | C,2) C,2 C,4 | D,8 | E,8 | z4!pp! C,2 C,2 | C,3 C, C,2 D,2 | %97
w: * li- te,|be- ne psal\- * * *|* li- te|e-|i|in vo-|ci- fe- ra- ti-|
 A,,8 | D,8 | z8 | z8 | z8 | z8 | z8 | z2!mf! D,2 G,3 G, | G,2!f! C,2 C,3 C, | F,4 D,2!ff! D,2 | %107
w: o-|ne.||||||et o- mni-|a o- pe- ra|e- jus in|
 A,4 E,4 | z2!pp! A,,2 D,3 D, | D,2 G,,3 G,, G,,2 | C,4 F,,G,,A,,B,, | C,2) D,2 A,,4 | D,8 | %113
w: fi- de,|et o- mni-|a o- pe- ra|e- jus * * *|* in fi-|de.|
 A,,2 A,,2 A,,2 G,,2 | C,6 D,2 | E,2 !>!C,4 G,2 | F,4 D,4 | E,2 !>!C,4"^cresc." G,2 | F,4 D,4 | %119
w: Di- li- git ju-|sti- ti-|am et ju-|di- ci-|um, et ju-|di- ci-|
 E,4 A,4 | A,4 A,4 | A,6 D,2 | A,2!f! A,4 _B,2 | A,8 | z4!ff! E,4 | E,4 E,4 | E,6 A,,2 | %127
w: um; mi-|se- ri-|cor- di-|a Do- mi-|ni,|mi-|se- ri-|cor- di-|
 E,2 !>!E,4 F,2 | E,2"^dim." E,2 C,2 D,2 | E,8 | A,,2 A,,2 F,,2 G,,2 | A,,8 | D,2 D,2 ^C,2 D,2 | %133
w: a Do- mi-|ni ple- na est|ter-|ra, ple- na est|ter-|ra, ple- na est|
 (A,,3 B,, ^C,2 D,2 | A,,8) | D,2!pp! D,2 ^C,2 D,2 | (A,,3 B,, ^C,2 D,2 | A,,8) | D,8- | D,8 |] %140
w: ter\- * * *||ra, ple- na est|ter\- * * *||ra.||

